static/img/kroki/c5e27d6220a8ae7ddf6e193751f3560e.svg

<?xml version="1.0" encoding="us-ascii" standalone="no"?><svg xmlns="http://www.w3.org/2000/svg" xmlns:xlink="http://www.w3.org/1999/xlink" contentStyleType="text/css" height="645px" preserveAspectRatio="none" style="width:440px;height:645px;" version="1.1" viewBox="0 0 440 645" width="440px" zoomAndPan="magnify"><defs/><g><!--class aws_sqs_queue--><g id="elem_aws_sqs_queue"><rect codeLine="23" fill="#3D176E" height="39.7891" id="aws_sqs_queue" rx="2.5" ry="2.5" style="stroke:#000D19;stroke-width:0.5;" width="171" x="7" y="599.55"/><ellipse cx="22" cy="619.4445" fill="#ADD1B2" rx="11" ry="11" style="stroke:#181818;stroke-width:1.0;"/><path d="M24.9688,625.0852 Q24.3906,625.382 23.75,625.5227 Q23.1094,625.6789 22.4063,625.6789 Q19.9063,625.6789 18.5781,624.0383 Q17.2656,622.382 17.2656,619.257 Q17.2656,616.132 18.5781,614.4758 Q19.9063,612.8195 22.4063,612.8195 Q23.1094,612.8195 23.75,612.9758 Q24.4063,613.132 24.9688,613.4289 L24.9688,616.1477 Q24.3438,615.5695 23.75,615.3039 Q23.1563,615.0227 22.5313,615.0227 Q21.1875,615.0227 20.5,616.1008 Q19.8125,617.1633 19.8125,619.257 Q19.8125,621.3508 20.5,622.4289 Q21.1875,623.4914 22.5313,623.4914 Q23.1563,623.4914 23.75,623.2258 Q24.3438,622.9445 24.9688,622.3664 L24.9688,625.0852 Z " fill="#000000"/><text fill="#D9B8FF" font-family="Helvetica" font-size="17" lengthAdjust="spacing" textLength="129" x="41" y="625.3298">aws_sqs_queue</text></g><!--class azure_storage_queue--><g id="elem_azure_storage_queue"><rect codeLine="26" fill="#3D176E" height="39.7891" id="azure_storage_queue" rx="2.5" ry="2.5" style="stroke:#000D19;stroke-width:0.5;" width="220" x="213.5" y="599.55"/><ellipse cx="228.5" cy="619.4445" fill="#ADD1B2" rx="11" ry="11" style="stroke:#181818;stroke-width:1.0;"/><path d="M231.4688,625.0852 Q230.8906,625.382 230.25,625.5227 Q229.6094,625.6789 228.9063,625.6789 Q226.4063,625.6789 225.0781,624.0383 Q223.7656,622.382 223.7656,619.257 Q223.7656,616.132 225.0781,614.4758 Q226.4063,612.8195 228.9063,612.8195 Q229.6094,612.8195 230.25,612.9758 Q230.9063,613.132 231.4688,613.4289 L231.4688,616.1477 Q230.8438,615.5695 230.25,615.3039 Q229.6563,615.0227 229.0313,615.0227 Q227.6875,615.0227 227,616.1008 Q226.3125,617.1633 226.3125,619.257 Q226.3125,621.3508 227,622.4289 Q227.6875,623.4914 229.0313,623.4914 Q229.6563,623.4914 230.25,623.2258 Q230.8438,622.9445 231.4688,622.3664 L231.4688,625.0852 Z " fill="#000000"/><text fill="#D9B8FF" font-family="Helvetica" font-size="17" lengthAdjust="spacing" textLength="178" x="247.5" y="625.3298">azure_storage_queue</text></g><!--class queue--><g id="elem_queue"><rect codeLine="29" fill="#3D176E" height="39.7891" id="queue" rx="2.5" ry="2.5" style="stroke:#000D19;stroke-width:0.5;" width="94" x="160.5" y="438.76"/><ellipse cx="175.5" cy="458.6545" fill="#ADD1B2" rx="11" ry="11" style="stroke:#181818;stroke-width:1.0;"/><path d="M178.4688,464.2952 Q177.8906,464.592 177.25,464.7327 Q176.6094,464.8889 175.9063,464.8889 Q173.4063,464.8889 172.0781,463.2483 Q170.7656,461.592 170.7656,458.467 Q170.7656,455.342 172.0781,453.6858 Q173.4063,452.0295 175.9063,452.0295 Q176.6094,452.0295 177.25,452.1858 Q177.9063,452.342 178.4688,452.6389 L178.4688,455.3577 Q177.8438,454.7795 177.25,454.5139 Q176.6563,454.2327 176.0313,454.2327 Q174.6875,454.2327 174,455.3108 Q173.3125,456.3733 173.3125,458.467 Q173.3125,460.5608 174,461.6389 Q174.6875,462.7014 176.0313,462.7014 Q176.6563,462.7014 177.25,462.4358 Q177.8438,462.1545 178.4688,461.5764 L178.4688,464.2952 Z " fill="#000000"/><text fill="#D9B8FF" font-family="Helvetica" font-size="17" lengthAdjust="spacing" textLength="52" x="194.5" y="464.5398">queue</text></g><!--class resource--><g id="elem_resource"><rect codeLine="32" fill="#3D176E" height="310.7578" id="resource" rx="2.5" ry="2.5" style="stroke:#000D19;stroke-width:0.5;" width="227" x="94" y="7"/><ellipse cx="162.75" cy="26.8945" fill="#ADD1B2" rx="11" ry="11" style="stroke:#181818;stroke-width:1.0;"/><path d="M165.7188,32.5352 Q165.1406,32.832 164.5,32.9727 Q163.8594,33.1289 163.1563,33.1289 Q160.6563,33.1289 159.3281,31.4883 Q158.0156,29.832 158.0156,26.707 Q158.0156,23.582 159.3281,21.9258 Q160.6563,20.2695 163.1563,20.2695 Q163.8594,20.2695 164.5,20.4258 Q165.1563,20.582 165.7188,20.8789 L165.7188,23.5977 Q165.0938,23.0195 164.5,22.7539 Q163.9063,22.4727 163.2813,22.4727 Q161.9375,22.4727 161.25,23.5508 Q160.5625,24.6133 160.5625,26.707 Q160.5625,28.8008 161.25,29.8789 Q161.9375,30.9414 163.2813,30.9414 Q163.9063,30.9414 164.5,30.6758 Q165.0938,30.3945 165.7188,29.8164 L165.7188,32.5352 Z " fill="#000000"/><text fill="#D9B8FF" font-family="Helvetica" font-size="17" lengthAdjust="spacing" textLength="71" x="188.25" y="32.7798">resource</text><line style="stroke:#000D19;stroke-width:0.5;" x1="95" x2="320" y1="46.7891" y2="46.7891"/><text fill="#D9B8FF" font-family="sans-serif" font-size="14" font-weight="bold" lengthAdjust="spacing" textLength="29" x="105" y="68.7842">age</text><text fill="#D9B8FF" font-family="sans-serif" font-size="14" lengthAdjust="spacing" textLength="66" x="134" y="68.7842">: duration</text><text fill="#D9B8FF" font-family="sans-serif" font-size="14" font-weight="bold" lengthAdjust="spacing" textLength="43" x="105" y="95.0811">atime</text><text fill="#D9B8FF" font-family="sans-serif" font-size="14" lengthAdjust="spacing" textLength="70" x="148" y="95.0811">: datetime</text><text fill="#D9B8FF" font-family="sans-serif" font-size="14" font-weight="bold" lengthAdjust="spacing" textLength="43" x="105" y="121.3779">ctime</text><text fill="#D9B8FF" font-family="sans-serif" font-size="14" lengthAdjust="spacing" textLength="70" x="148" y="121.3779">: datetime</text><text fill="#D9B8FF" font-family="sans-serif" font-size="14" font-weight="bold" lengthAdjust="spacing" textLength="14" x="105" y="147.6748">id</text><text fill="#D9B8FF" font-family="sans-serif" font-size="14" lengthAdjust="spacing" textLength="48" x="119" y="147.6748">: string</text><text fill="#D9B8FF" font-family="sans-serif" font-size="14" font-weight="bold" lengthAdjust="spacing" textLength="33" x="105" y="173.9717">kind</text><text fill="#D9B8FF" font-family="sans-serif" font-size="14" lengthAdjust="spacing" textLength="48" x="138" y="173.9717">: string</text><text fill="#D9B8FF" font-family="sans-serif" font-size="14" font-weight="bold" lengthAdjust="spacing" textLength="90" x="105" y="200.2686">last_access</text><text fill="#D9B8FF" font-family="sans-serif" font-size="14" lengthAdjust="spacing" textLength="66" x="195" y="200.2686">: duration</text><text fill="#D9B8FF" font-family="sans-serif" font-size="14" font-weight="bold" lengthAdjust="spacing" textLength="90" x="105" y="226.5654">last_update</text><text fill="#D9B8FF" font-family="sans-serif" font-size="14" lengthAdjust="spacing" textLength="66" x="195" y="226.5654">: duration</text><text fill="#D9B8FF" font-family="sans-serif" font-size="14" font-weight="bold" lengthAdjust="spacing" textLength="48" x="105" y="252.8623">mtime</text><text fill="#D9B8FF" font-family="sans-serif" font-size="14" lengthAdjust="spacing" textLength="70" x="153" y="252.8623">: datetime</text><text fill="#D9B8FF" font-family="sans-serif" font-size="14" font-weight="bold" lengthAdjust="spacing" textLength="43" x="105" y="279.1592">name</text><text fill="#D9B8FF" font-family="sans-serif" font-size="14" lengthAdjust="spacing" textLength="48" x="148" y="279.1592">: string</text><text fill="#D9B8FF" font-family="sans-serif" font-size="14" font-weight="bold" lengthAdjust="spacing" textLength="34" x="105" y="305.4561">tags</text><text fill="#D9B8FF" font-family="sans-serif" font-size="14" lengthAdjust="spacing" textLength="171" x="139" y="305.4561">: dictionary[string, string]</text></g><!--reverse link queue to aws_sqs_queue--><g id="link_queue_aws_sqs_queue"><path codeLine="44" d="M183.0699,493.3868 C160.9599,523.9068 128.56,568.66 106.42,599.22 " fill="none" id="queue-backto-aws_sqs_queue" style="stroke:#FFAF37;stroke-width:2.0;"/><polygon fill="none" points="193.63,478.81,178.211,489.8668,187.9289,496.9069,193.63,478.81" style="stroke:#FFAF37;stroke-width:2.0;"/></g><!--reverse link queue to azure_storage_queue--><g id="link_queue_azure_storage_queue"><path codeLine="45" d="M232.1093,493.3437 C254.4093,523.8637 287.13,568.66 309.46,599.22 " fill="none" id="queue-backto-azure_storage_queue" style="stroke:#FFAF37;stroke-width:2.0;"/><polygon fill="none" points="221.49,478.81,227.2648,496.8835,236.9539,489.804,221.49,478.81" style="stroke:#FFAF37;stroke-width:2.0;"/></g><!--reverse link resource to queue--><g id="link_resource_queue"><path codeLine="46" d="M207.5,335.85 C207.5,384.14 207.5,413.37 207.5,438.68 " fill="none" id="resource-backto-queue" style="stroke:#FFAF37;stroke-width:2.0;"/><polygon fill="none" points="207.5,317.85,201.5,335.85,213.5,335.85,207.5,317.85" style="stroke:#FFAF37;stroke-width:2.0;"/></g><!--SRC=[XP9FJm8n4CNl-ocQU2EIW4GHumL9Z5wCKM_6aA6TNHfsstKwAy4_tzsM0bbsGM_jUx_EcvbqhXKAB4fUYGAB6P9Bt4AR4WWACIQooudDBOcJD8LqC6oQjzRmly0352ZkCFz0rXAQnCjSouL1vyHPpRe1kSZ8LaR5yanWdBVGS8sQvE3Sc9dqh6AiDQD6iyiqRPBDeYS3rHzUO0kpf90sIA_NK_rH4_atwi-vTyIp_aJHho_jmJAsscn5hAa_kmn4hSdMe5l_Q8-Fe9GscJYlQK-n9p98U_hp79HT1Zg5tDLZ72EXvLM9azPKEBfKwV0WV7yCJcHOdO2bcxftDtsli4BnbIG_M-Ep8fmwjWGPjksMGEXiHJ9edOv_qkbS2LKHiBOcAAoBg05ZE7jD7j2q2eBp_z1a_kedsXTy5az1Il_B6mbhfof3hOPJ7CWn4ALTOOOiLjGoF0DQlKRlTCEy-L7ZrDVVtMvtVtFxJdjroMuz4OdYBm00]--></g></svg>

<svg xmlns="http://www.w3.org/2000/svg" width="440" height="645" viewBox="0 0 440 645"><rect width="171" height="39.789" x="7" y="599.55" fill="#3D176E" rx="2.5" ry="2.5" style="stroke:#000d19;stroke-width:.5"/><circle cx="22" cy="619.444" r="11" fill="#ADD1B2" style="stroke:#181818;stroke-width:1"/><path d="M24.969 625.085q-.578.297-1.219.438-.64.156-1.344.156-2.5 0-3.828-1.64-1.312-1.657-1.312-4.782t1.312-4.781q1.328-1.657 3.828-1.657.703 0 1.344.157.656.156 1.219.453v2.719q-.625-.579-1.219-.844-.594-.281-1.219-.281-1.343 0-2.031 1.078-.687 1.062-.687 3.156t.687 3.172q.688 1.062 2.031 1.062.625 0 1.219-.265.594-.282 1.219-.86z"/><text x="41" y="625.33" fill="#D9B8FF" font-family="Helvetica" font-size="17" textLength="129">aws_sqs_queue</text><rect width="220" height="39.789" x="213.5" y="599.55" fill="#3D176E" rx="2.5" ry="2.5" style="stroke:#000d19;stroke-width:.5"/><circle cx="228.5" cy="619.444" r="11" fill="#ADD1B2" style="stroke:#181818;stroke-width:1"/><path d="M231.469 625.085q-.578.297-1.219.438-.64.156-1.344.156-2.5 0-3.828-1.64-1.312-1.657-1.312-4.782t1.312-4.781q1.328-1.657 3.828-1.657.703 0 1.344.157.656.156 1.219.453v2.719q-.625-.579-1.219-.844-.594-.281-1.219-.281-1.344 0-2.031 1.078-.687 1.062-.687 3.156t.687 3.172q.688 1.062 2.031 1.062.625 0 1.219-.265.594-.282 1.219-.86z"/><text x="247.5" y="625.33" fill="#D9B8FF" font-family="Helvetica" font-size="17" textLength="178">azure_storage_queue</text><rect width="94" height="39.789" x="160.5" y="438.76" fill="#3D176E" rx="2.5" ry="2.5" style="stroke:#000d19;stroke-width:.5"/><circle cx="175.5" cy="458.654" r="11" fill="#ADD1B2" style="stroke:#181818;stroke-width:1"/><path d="M178.469 464.295q-.578.297-1.219.438-.64.156-1.344.156-2.5 0-3.828-1.64-1.312-1.657-1.312-4.782t1.312-4.781q1.328-1.656 3.828-1.656.703 0 1.344.156.656.156 1.219.453v2.719q-.625-.579-1.219-.844-.594-.281-1.219-.281-1.344 0-2.031 1.078-.687 1.062-.687 3.156t.687 3.172q.688 1.062 2.031 1.062.625 0 1.219-.265.594-.281 1.219-.86z"/><text x="194.5" y="464.54" fill="#D9B8FF" font-family="Helvetica" font-size="17" textLength="52">queue</text><rect width="227" height="310.758" x="94" y="7" fill="#3D176E" rx="2.5" ry="2.5" style="stroke:#000d19;stroke-width:.5"/><circle cx="162.75" cy="26.895" r="11" fill="#ADD1B2" style="stroke:#181818;stroke-width:1"/><path d="M165.719 32.535q-.578.297-1.219.438-.64.156-1.344.156-2.5 0-3.828-1.64-1.312-1.657-1.312-4.782t1.312-4.781q1.328-1.656 3.828-1.656.703 0 1.344.156.656.156 1.219.453v2.719q-.625-.578-1.219-.844-.594-.281-1.219-.281-1.344 0-2.031 1.078-.687 1.062-.687 3.156t.687 3.172q.688 1.062 2.031 1.062.625 0 1.219-.265.594-.281 1.219-.86z"/><text x="188.25" y="32.78" fill="#D9B8FF" font-family="Helvetica" font-size="17" textLength="71">resource</text><path d="M95 46.789h225" style="stroke:#000d19;stroke-width:.5"/><text x="105" y="68.784" fill="#D9B8FF" font-family="sans-serif" font-size="14" font-weight="bold" textLength="29">age</text><text x="134" y="68.784" fill="#D9B8FF" font-family="sans-serif" font-size="14" textLength="66">: duration</text><text x="105" y="95.081" fill="#D9B8FF" font-family="sans-serif" font-size="14" font-weight="bold" textLength="43">atime</text><text x="148" y="95.081" fill="#D9B8FF" font-family="sans-serif" font-size="14" textLength="70">: datetime</text><text x="105" y="121.378" fill="#D9B8FF" font-family="sans-serif" font-size="14" font-weight="bold" textLength="43">ctime</text><text x="148" y="121.378" fill="#D9B8FF" font-family="sans-serif" font-size="14" textLength="70">: datetime</text><text x="105" y="147.675" fill="#D9B8FF" font-family="sans-serif" font-size="14" font-weight="bold" textLength="14">id</text><text x="119" y="147.675" fill="#D9B8FF" font-family="sans-serif" font-size="14" textLength="48">: string</text><text x="105" y="173.972" fill="#D9B8FF" font-family="sans-serif" font-size="14" font-weight="bold" textLength="33">kind</text><text x="138" y="173.972" fill="#D9B8FF" font-family="sans-serif" font-size="14" textLength="48">: string</text><text x="105" y="200.269" fill="#D9B8FF" font-family="sans-serif" font-size="14" font-weight="bold" textLength="90">last_access</text><text x="195" y="200.269" fill="#D9B8FF" font-family="sans-serif" font-size="14" textLength="66">: duration</text><text x="105" y="226.565" fill="#D9B8FF" font-family="sans-serif" font-size="14" font-weight="bold" textLength="90">last_update</text><text x="195" y="226.565" fill="#D9B8FF" font-family="sans-serif" font-size="14" textLength="66">: duration</text><text x="105" y="252.862" fill="#D9B8FF" font-family="sans-serif" font-size="14" font-weight="bold" textLength="48">mtime</text><text x="153" y="252.862" fill="#D9B8FF" font-family="sans-serif" font-size="14" textLength="70">: datetime</text><text x="105" y="279.159" fill="#D9B8FF" font-family="sans-serif" font-size="14" font-weight="bold" textLength="43">name</text><text x="148" y="279.159" fill="#D9B8FF" font-family="sans-serif" font-size="14" textLength="48">: string</text><text x="105" y="305.456" fill="#D9B8FF" font-family="sans-serif" font-size="14" font-weight="bold" textLength="34">tags</text><text x="139" y="305.456" fill="#D9B8FF" font-family="sans-serif" font-size="14" textLength="171">: dictionary[string, string]</text><g fill="none"><path d="M183.07 493.387c-22.11 30.52-54.51 75.273-76.65 105.833" style="stroke:#ffaf37;stroke-width:2"/><path d="m193.63 478.81-15.419 11.057 9.718 7.04z" style="stroke:#ffaf37;stroke-width:2"/></g><path fill="none" d="M232.11 493.344c22.3 30.52 55.02 75.316 77.35 105.876m-87.97-120.41 5.775 18.074 9.689-7.08zM207.5 335.85v102.83m0-120.83-6 18h12z" style="stroke:#ffaf37;stroke-width:2"/></svg>
